X:16954
T:The Light-Tower
R:strathspey
C:Paul S. Cranford
O:20th Century Cape Breton
D:The Lighthouse, Cranford Publications
B:The Lighthouse Collection, ISBN 0-9691181-5-5
N:http://www.cranfordpub.com
Q:248
L:1/8
M:C
K:Amix
A>AABAGG<A B>GAAAAc<d|e>cd>B c>AB<c|!
A>AABAGG<A B>GAAc<d|e>cd>B c>Ac>d||
e<ac>A B>G B/c/d|e<ac>A c/d/e a>c|e<ac>A B>G B/c/d|e>cd>B c>Ac<d|!
e<ac>A B>G B/c/d|e<ae>c e/f/^g a>c|B>de>d B>G B/c/d|e>cd>B c>AB<c|]!
